X: 10434
M: C
L: 1/8
K: B
f2 |\
{e}d2(cB) g2B2 | {B}A6 B2 | (cd ec) F2e2 | {e}d6 c2 |\
f2 |\
f2G2 =B2d2 | (f3g/_a/ g2)f2 | {f}e2(dc) {e}d2(c=B) |
(cd e4) (dc) | {e}d2(cB) {f}e2(dc) | (f4 g2B2) |\


